src/asset/img/icon/item_category/item1.svg

<svg xmlns:xlink="http://www.w3.org/1999/xlink" height="20.85" width="21.25" xmlns="http://www.w3.org/2000/svg"><use height="75.1" transform="matrix(.2783 0 0 .2775 .007 0)" width="76.25" xlink:href="#a"/><defs><use height="75.1" width="76.25" xlink:href="#b" id="a"/><g id="b" fill="#3f5a75" fill-rule="evenodd"><path d="M41.35 75.65q-6.1-.15-10.55-4.6-4.55-4.45-4.55-11 0-6.4 4.55-10.95 4.2-4.2 9.85-4.55-1.65.15-3.25.75v1.35q-1.9.5-3.95 2.9-3.75 4.45-3.1 7.9.65 2.8 2.75 2.6l4.3-.8V75l3.95.65" fill-opacity=".643" transform="translate(13.45 -5.95)"/><path d="M43.35 44.6q5.4.45 9.45 4.5 4.6 4.55 4.6 10.95 0 6.55-4.6 11-3.2 3.2-7.25 4.2l2.8-1.1v-28.2q-2.7-1.1-5-1.35" fill-opacity=".792" transform="translate(13.45 -5.95)"/><path d="M18.35 15.95q4.6 4.45 4.6 11 0 6.4-4.6 10.95-4.6 4.6-11 4.6Q1 42.5-3.6 37.9q-4.6-4.55-4.6-10.95 0-6.55 4.6-11 4.6-4.6 10.95-4.6 6.4 0 11 4.6M9.4 19.8q.15-1.9-1.35-3.85-3.45-4.25-9.55 0-6.2 4.25-3.1 8.7 1.8 2.7 4.6 2.65.1 2.85 2.15 4.9 2.1 2.1 5.2 2.1 3.15 0 5.25-2.1 2.15-2.15 2.15-5.25 0-3.15-2.15-5.25-1.35-1.4-3.2-1.9" fill-opacity=".733" transform="translate(13.45 -5.95)"/><path d="M9.4 19.8q1.85.5 3.2 1.9 2.15 2.1 2.15 5.25 0 3.1-2.15 5.25-2.1 2.1-5.25 2.1-3.1 0-5.2-2.1Q.1 30.15 0 27.3q2.3-.1 5.25-2 3.9-2.65 4.15-5.5" fill-opacity=".18" transform="translate(13.45 -5.95)"/><path d="M56.55 45.3q6.25 6.25 6.25 14.75 0 8.7-6.25 14.95-6.05 6.05-14.75 6.05T27.05 75Q21 68.75 21 60.05q0-8.5 6.05-14.75 6.25-6.05 14.75-6.05 8.7 0 14.75 6.05m-11 29.95q4.05-1 7.25-4.2 4.6-4.45 4.6-11 0-6.4-4.6-10.95-4.05-4.05-9.45-4.5l-2.7-.05Q35 44.9 30.8 49.1q-4.55 4.55-4.55 10.95 0 6.55 4.55 11 4.45 4.45 10.55 4.6h1.05l3.15-.4m-27.2-59.3q-4.6-4.6-11-4.6-6.35 0-10.95 4.6-4.6 4.45-4.6 11 0 6.4 4.6 10.95Q1 42.5 7.35 42.5q6.4 0 11-4.6 4.6-4.55 4.6-10.95 0-6.55-4.6-11m3.8 25.75q-6.1 6.05-14.8 6.05-8.5 0-14.75-6.05-6.05-6.05-6.05-14.75T-7.4 12q6.1-6.05 14.75-6.05 8.7 0 14.8 6.05 6.2 6.25 6.2 14.95 0 8.5-6.2 14.75" fill-opacity=".961" transform="translate(13.45 -5.95)"/></g></defs></svg>

<?xml version="1.0" encoding="UTF-8" standalone="no"?>
<svg xmlns:xlink="http://www.w3.org/1999/xlink" height="20.85px" width="21.25px" xmlns="http://www.w3.org/2000/svg">
  <g transform="matrix(1.0, 0.0, 0.0, 1.0, -1.9, -2.1)">
    <use height="75.1" transform="matrix(0.2783, 0.0, 0.0, 0.2775, 1.9066, 2.1009)" width="76.25" xlink:href="#sprite0"/>
  </g>
  <defs>
    <g id="sprite0" transform="matrix(1.0, 0.0, 0.0, 1.0, 13.45, -5.95)">
      <use height="75.1" transform="matrix(1.0, 0.0, 0.0, 1.0, -13.45, 5.95)" width="76.25" xlink:href="#shape0"/>
    </g>
    <g id="shape0" transform="matrix(1.0, 0.0, 0.0, 1.0, 13.45, -5.95)">
      <path d="M41.35 75.65 Q35.25 75.5 30.8 71.05 26.25 66.6 26.25 60.05 26.25 53.65 30.8 49.1 35.0 44.9 40.65 44.55 39.0 44.7 37.4 45.3 L37.4 46.65 Q35.5 47.15 33.45 49.55 29.7 54.0 30.35 57.45 31.0 60.25 33.1 60.05 L37.4 59.25 37.4 75.0 41.35 75.65" fill="#3f5a75" fill-opacity="0.6431373" fill-rule="evenodd" stroke="none"/>
      <path d="M43.35 44.6 Q48.75 45.05 52.8 49.1 57.4 53.65 57.4 60.05 57.4 66.6 52.8 71.05 49.6 74.25 45.55 75.25 L48.35 74.15 48.35 45.95 Q45.65 44.85 43.35 44.6" fill="#3f5a75" fill-opacity="0.7921569" fill-rule="evenodd" stroke="none"/>
      <path d="M18.35 15.95 Q22.95 20.4 22.95 26.95 22.95 33.35 18.35 37.9 13.75 42.5 7.35 42.5 1.0 42.5 -3.6 37.9 -8.2 33.35 -8.2 26.95 -8.2 20.4 -3.6 15.95 1.0 11.35 7.35 11.35 13.75 11.35 18.35 15.95 M9.4 19.8 Q9.55 17.9 8.05 15.95 4.6 11.7 -1.5 15.95 -7.7 20.2 -4.6 24.65 -2.8 27.35 0.0 27.3 0.1 30.15 2.15 32.2 4.25 34.3 7.35 34.3 10.5 34.3 12.6 32.2 14.75 30.05 14.75 26.95 14.75 23.8 12.6 21.7 11.25 20.3 9.4 19.8" fill="#3f5a75" fill-opacity="0.73333335" fill-rule="evenodd" stroke="none"/>
      <path d="M9.4 19.8 Q11.25 20.3 12.6 21.7 14.75 23.8 14.75 26.95 14.75 30.05 12.6 32.2 10.5 34.3 7.35 34.3 4.25 34.3 2.15 32.2 0.1 30.15 0.0 27.3 2.3 27.2 5.25 25.3 9.15 22.65 9.4 19.8" fill="#3f5a75" fill-opacity="0.18039216" fill-rule="evenodd" stroke="none"/>
      <path d="M56.55 45.3 Q62.8 51.55 62.8 60.05 62.8 68.75 56.55 75.0 50.5 81.05 41.8 81.05 33.1 81.05 27.05 75.0 21.0 68.75 21.0 60.05 21.0 51.55 27.05 45.3 33.3 39.25 41.8 39.25 50.5 39.25 56.55 45.3 M45.55 75.25 Q49.6 74.25 52.8 71.05 57.4 66.6 57.4 60.05 57.4 53.65 52.8 49.1 48.75 45.05 43.35 44.6 L40.65 44.55 Q35.0 44.9 30.8 49.1 26.25 53.65 26.25 60.05 26.25 66.6 30.8 71.05 35.25 75.5 41.35 75.65 L41.8 75.65 42.05 75.65 42.15 75.65 42.3 75.65 42.4 75.65 45.55 75.25 M18.35 15.95 Q13.75 11.35 7.35 11.35 1.0 11.35 -3.6 15.95 -8.2 20.4 -8.2 26.95 -8.2 33.35 -3.6 37.9 1.0 42.5 7.35 42.5 13.75 42.5 18.35 37.9 22.95 33.35 22.95 26.95 22.95 20.4 18.35 15.95 M22.15 41.7 Q16.05 47.75 7.35 47.75 -1.15 47.75 -7.4 41.7 -13.45 35.65 -13.45 26.95 -13.45 18.25 -7.4 12.0 -1.3 5.95 7.35 5.95 16.05 5.95 22.15 12.0 28.35 18.25 28.35 26.95 28.35 35.45 22.15 41.7" fill="#3f5a75" fill-opacity="0.9607843" fill-rule="evenodd" stroke="none"/>
    </g>
  </defs>
</svg>
